!!!COM: Palestrina, Giovanni Perluigi da
!!!OPR: Missa Panis quem ego dabo
!!!OMD: Credo
!!!OTL: Crucifixus
**kern	**kern	**kern	**kern
*Itenor	*Itenor	*Icalto	*Icant
!Tenor 2	!Tenor 1	!Altus	!Cantus
*clefGv2	*clefGv2	*clefG2	*clefG2
*k[]	*k[]	*k[]	*k[]
*D:dor	*D:dor	*D:dor	*D:dor
*M4/2	*M4/2	*M4/2	*M4/2
=88	=88	=88	=88
0r	1r	0e	0r
.	[1A	.	.
=89	=89	=89	=89
0r	1A]	1e	0r
.	1A	[1a	.
=90	=90	=90	=90
0r	1.d	2a]	1r
.	.	2g	.
.	.	2f	[1a
.	2c#	2e	.
=91	=91	=91	=91
0r	2d	1f	1a]
.	2d	.	.
.	2A	2e	1a
.	2c	[2a	.
=92	=92	=92	=92
0r	1B	2a]	1.dd
.	.	2g#	.
.	1A	[1a	.
.	.	.	2cc#
=93	=93	=93	=93
1r	2.d	0a]	2dd
.	.	.	2dd
.	4e	.	.
2r	4f	.	2a
.	4g	.	.
2f	[2a	.	2cc
=94	=94	=94	=94
2d	2a]	0r	1b
2e	2g#	.	.
[1f	2a	.	[1a
.	2f	.	.
=95	=95	=95	=95
2f]	2d	2r	1a]
2c	2e	2cc	.
1d	[1f	2a	1r
.	.	2b	.
=96	=96	=96	=96
1A	2f]	1.cc	2r
.	2e	.	2cc
1r	2f	.	2a
.	2e	2g	2b
=97	=97	=97	=97
2r	1A	1a	1.cc
1a	.	.	.
.	2r	1e	.
2g	[2e	.	2b
=98	=98	=98	=98
2e	2e]	0r	2cc
2a	2d	.	2.dd
2g	2B	.	.
.	.	.	4b
2e	2c	.	[2ee
=99	=99	=99	=99
1f	1d	2r	2ee]
.	.	1a	2dd
2.e	4c	.	1ee
.	4d	.	.
.	4e	2g	.
4d	4f	.	.
=100	=100	=100	=100
4c	2g	2e	0r
4B	.	.	.
4A	2.f	2a	.
4B	.	.	.
1c	.	2g	.
.	4e	.	.
.	[2e	2e	.
=101	=101	=101	=101
1d	4e]	2.f	2r
.	4d	.	.
.	2d	.	1dd
.	.	4g	.
[1A	1e	4a	.
.	.	4g	.
.	.	4a	2cc
.	.	4b	.
=102	=102	=102	=102
2A]	0r	2cc	2a
2G	.	2.b	2dd
2A	.	.	2cc
.	.	4a	.
2A	.	[2a	2a
=103	=103	=103	=103
2e	2r	2a]	1b
2e	1e	2g#	.
1A	.	2r	1a
.	2c	2a	.
=104	=104	=104	=104
2r	2d	2f	0r
1e	2e	2g	.
.	2A	4a	.
.	.	4b	.
2c	[2a	4cc	.
.	.	4a	.
=105	=105	=105	=105
2d	2a]	1b	2r
2e	2g	.	1ee
2A	2e	1a	.
[2a	[2f	.	2cc
=106	=106	=106	=106
2a]	2f]	0r	2dd
2g	2e	.	2ee
1f	1d	.	2a
.	.	.	[2dd
=107	=107	=107	=107
1e	1A	2r	2dd]
.	.	1a	2cc
1d	2r	.	1ff
.	2d	2f	.
=108	=108	=108	=108
0r	2c	2g	1ee
.	2A	2a	.
.	1B-	4d	2dd
.	.	4e	.
.	.	4f	2dd
.	.	4g	.
=109	=109	=109	=109
2r	1A	4a	2cc
.	.	4b	.
1e	.	2.cc	2a
.	1A	.	1cc
.	.	4b	.
2c	.	[2a	.
=110	=110	=110	=110
2d	1r	2a]	1b
2e	.	2g#	.
2.A	2r	2a	1a
.	[2A	2e	.
4B	.	.	.
=111	=111	=111	=111
2c	2A]	2f	1r
2d	2B	1g	.
2e	1c	.	2r
2A	.	2e	[2a
=112	=112	=112	=112
0r	1d	1f	2a]
.	.	.	2b
.	2e	2g	1cc
.	[2f	4a	.
.	.	4g	.
=113	=113	=113	=113
0r	2f]	4a	2dd
.	.	4b	.
.	2e	2.cc	2ee
.	1d	.	1ff
.	.	4b	.
.	.	4b	.
.	.	8a	.
.	.	8b	.
=114	=114	=114	=114
2r	1c	2cc	2ee
2A	.	2cc	2ee
2A	1r	2cc	2ee
2B	.	2b	2dd
=115	=115	=115	=115
2c	0r	2a	2ee
2d	.	2a	4dd
.	.	.	4cc
1e	.	2g	2b
.	.	[2cc	2g
=116	=116	=116	=116
1f	0r	2cc]	1a
.	.	4b	.
.	.	4a	.
[1e	.	2g#	2b
.	.	[2a	2cc
=117	=117	=117	=117
1e]	1r	2a]	1b
.	.	2g#	.
2r	1A	1a	1cc
2a	.	.	.
=118	=118	=118	=118
2g	2B	0r	1r
2e	2c	.	.
1f	2.d	.	2r
.	.	.	2a
.	4c	.	.
=119	=119	=119	=119
2g	2B	1r	2b
1a	2A	.	2cc
.	2B	1d	[1dd
2g#	2B	.	.
=120	=120	=120	=120
1a	1A	2e	2dd]
.	.	2f#	2cc
1r	2r	2.g	4b
.	.	.	4cc
.	2G	.	4dd
.	.	4f	4b
=121	=121	=121	=121
0r	2A	2e	2cc
.	2B	2d	2dd
.	2c	2e	2g
.	[2c	2e	2g
=122	=122	=122	=122
2r	2c]	1d	2a
2d	2B	.	2b
2e	1A	2r	2cc
2f#	.	2c	[2cc
=123	=123	=123	=123
1g	1G	2d	2cc]
.	.	2e	2b
2d	1r	2f	1a
2f	.	[2d	.
=124	=124	=124	=124
2.e	1A	2d]	1a
.	.	2c#	.
4f	.	.	.
2g	2B	2d	1r
[2a	2c	2e	.
=125	=125	=125	=125
2a]	2.d	2f	1a
2d	.	2f	.
.	4c	.	.
1r	2B	2g	2b
.	2A	[2a	2cc
=126	=126	=126	=126
2r	1B	2a]	1.dd
2d	.	2g#	.
2e	1A	1a	.
2f#	.	.	2cc
=127	=127	=127	=127
2.g	2G	2r	1b
.	2G	2d	.
4f	.	.	.
2e	[1A	2c	[1a
[2d	.	2f	.
=128	=128	=128	=128
2d]	1A]	1e	0a]
2c#	.	.	.
2d	2r	2.f	.
[2f	[2d	.	.
.	.	4g	.
=129	=129	=129	=129
4f]	4d]	0a	0r
4f	4d	.	.
2e	2c	.	.
2c	2A	.	.
2f	2d	.	.
=130	=130	=130	=130
2e	2c	2r	1r
2c	2A	2.a	.
1d	1B-	.	2r
.	.	4a	.
.	.	2g	[2dd
=131	=131	=131	=131
1e	1A	2a	4dd]
.	.	.	4dd
.	.	2e	2cc
1r	4d	2f	2a
.	4e	.	.
.	4f	2d	2dd
.	4g	.	.
=132	=132	=132	=132
1r	1a	1f	2cc
.	.	.	2a
2r	1r	1g	1b-
[2g	.	.	.
=133	=133	=133	=133
4g]	2r	2d	1a
4g	.	.	.
2f	2.d	2.a	.
2d	.	.	1r
.	4d	4b	.
2g	2c	[2cc	.
=134	=134	=134	=134
2.f	2A	2cc]	0r
.	2d	2f	.
4d	.	.	.
1e	2c	2g	.
.	2A	[2a	.
=135	=135	=135	=135
1d	1B-	4a]	2r
.	.	8g	.
.	.	8f	.
.	.	2g	2.dd
1e	2.A	2a	.
.	.	.	4dd
.	.	[2a	2cc
.	4G	.	.
=136	=136	=136	=136
2f	2F	4a]	2a
.	.	4a	.
2d	2G	2g	2dd
1a	2A	2e	2cc
.	2F	2a	2a
=137	=137	=137	=137
1d	1G	2.g	1b-
.	.	4d	.
2r	1d	1f	1a
2d	.	.	.
=138	=138	=138	=138
2d	1A	1e	2r
2c	.	.	2a
2.f	2.d	4d	2a
.	.	4e	.
.	.	4f	2a
4e	4e	4g	.
=139	=139	=139	=139
0d	0f	0a	0dd
=140	=140	=140	=140
0A	0e	0a	0cc#
*-	*-	*-	*-
!!!CDT: 1525/^1526/-1594/2/2
!!!OCY: Italia
!!!AGN: Mass (Parody)
!!!AST: renaissance, vocal
!!!ASW: Motet 1532 (Lupus Hellinck)
!!!PWK: Masses, Book 5
!!!RNB: Cadence finals: A
!!!YOR: Le Opere Complete, v. 15, p. 45
!!!YOO: Rome, Italy: Fratelli Scalera
!!!END: 1992//
!!!EED: John Miller
!!!YEC: Copyright 2000, John Miller
!!!YEN: United States of America
!!!YEM: Rights to all derivative electronic formats reserved.
!!!YEM: Refer to licensing agreement for further details.
!!!YEM: This file must be accompanied by the licensing agreement.
!!!YEM: A copy of the licensing agreement may be found at http://www.music-cog.ohio-state.edu/HumdrumDatabases/Palestrina/license.txt
!!!EMD: converted to Humdrum by Bret Aarden
